src/icons/accounts.svg

<?xml version="1.0" encoding="UTF-8"?>
<svg id="export" xmlns="http://www.w3.org/2000/svg" width="24" height="24" viewBox="0 0 24 24">
  <defs>
    <style>
      .cls-1 {
        fill: #bb2649;
      }
    </style>
  </defs>
  <g id="icon_accounts">
    <path id="Path_11462" data-name="Path 11462" class="cls-1" d="m10.89,13.05c1.99-1.14,3.19-3.28,3.12-5.58v-1.4c0-3.34-2.32-6.06-5.15-6.07C6.03,0,3.73,2.73,3.72,6.07v1.4h0c-.07,2.29,1.14,4.44,3.13,5.58C3.68,14.47.01,18.74,0,23.5c0,.28.22.5.5.5h16.73c.28,0,.5-.22.5-.5-.01-4.76-3.68-9.03-6.84-10.45Zm-6.17-5.58v-1.39c0-2.79,1.87-5.07,4.14-5.08,2.28,0,4.14,2.29,4.15,5.07v1.39c0,2.79-1.87,5.07-4.15,5.07-2.28,0-4.14-2.28-4.15-5.07Zm-3.7,15.53c.31-5.22,5.28-9.45,7.85-9.45s7.54,4.23,7.85,9.45H1.02Z"/>
    <path id="Path_11463" data-name="Path 11463" class="cls-1" d="m23.5,24h-4.27c-.28,0-.5-.22-.5-.5,0-.04,0-.07.01-.11.06-.25.3-.42.55-.39h3.69c-.34-4.08-4.59-7.36-6.8-7.36l-.18.02c-.16.01-.31-.05-.42-.17-.14-.16-.17-.38-.08-.57.08-.18.27-.3.47-.29.13.01.17.01.21.01,2.15-.15,3.79-1.99,3.68-4.15v-1.16c.11-2.15-1.53-4-3.68-4.15-.23,0-.45.03-.68.08-.27.06-.54-.12-.59-.39-.06-.27.12-.54.39-.59.29-.06.59-.1.88-.1,2.71.15,4.79,2.44,4.68,5.14v1.16c.03,1.92-1,3.7-2.68,4.64,2.74,1.24,5.8,4.62,5.81,8.36,0,.28-.22.5-.5.5h0Z"/>
  </g>
</svg>

<svg id="export" xmlns="http://www.w3.org/2000/svg" width="24" height="24" viewBox="0 0 24 24"><defs><style>.cls-1{fill:#3c5583;}</style></defs><path id="Path_11462" data-name="Path 11462" class="cls-1" d="M10.89,13.05A6.21,6.21,0,0,0,14,7.47V6.07C14,2.73,11.7,0,8.86,0S3.73,2.73,3.72,6.07v1.4h0a6.2,6.2,0,0,0,3.13,5.58C3.68,14.47,0,18.74,0,23.5a.5.5,0,0,0,.5.5H17.23a.5.5,0,0,0,.5-.5C17.72,18.74,14.05,14.47,10.89,13.05ZM4.72,7.47V6.08C4.72,3.29,6.59,1,8.86,1S13,3.29,13,6.08V7.47c0,2.79-1.87,5.07-4.14,5.08S4.73,10.26,4.72,7.47ZM1,23c.31-5.22,5.28-9.45,7.84-9.45S16.4,17.78,16.71,23Z"/><path id="Path_11463" data-name="Path 11463" class="cls-1" d="M23.5,24H19.23a.5.5,0,0,1-.5-.5.41.41,0,0,1,0-.11.51.51,0,0,1,.55-.39H23c-.34-4.07-4.59-7.36-6.8-7.36H16a.49.49,0,0,1-.42-.17.56.56,0,0,1-.08-.57.51.51,0,0,1,.47-.29l.21,0a4,4,0,0,0,3.68-4.15V9.33a4,4,0,0,0-3.68-4.14,3.92,3.92,0,0,0-.68.07.5.5,0,1,1-.2-1,3.71,3.71,0,0,1,.88-.1,4.94,4.94,0,0,1,4.68,5.14v1.16a5.22,5.22,0,0,1-2.67,4.64C20.92,16.37,24,19.75,24,23.5a.5.5,0,0,1-.5.5Z"/></svg>
